!!!OTL: Imperatrix virgo gloriosa
**kern
*staff1
=--
*clefC1
*k[b-]
1f
1e
=-
2.d
4e
2f
2g
=-
1.a
2g
=-
2f
2e
2f
2d
=-
2f
2e
2f
2g
=-
1e
2c
2d
1e
!!linebreak:original
=-
2a
2cc
2dd
2cc
1b-
1cc
=-
2b-
2g
2a
2b-
2cc
1a
2g
1a
!!linebreak:original
=-
2cc
2b-
2cc
2a
1g
1e
=-
2f
2e
1d
2c
1d
=-
2f
2e
2f
2g
1e
=-
2c
2d
0e
=-=
*-
!!title: @{OTL}, @{GTL}, ed. @{ENC}
!!!pag:
!!!GTL: Hymnbook C
!!!EFL: 
!!!YEM: Creative Commons CC/BY/NC/SA 4.0
!!!ENC: Marcin Konik
!!!END: 2015-0m-dd
!!!EED: Marcin Konik
!!!EEV: 
!!!ONB: Encoded in vim by Marcin Konik
!!!CharacterEncoding: utf-8
!!!RDF**kern: l=long note in original notation
!!!RDF**kern: i=editorial accidental
!!muse2ps: z14jc180F
!!!COM: Anonim
!!!CDT: [?]
!!!TXO: Polish
!!!ODT: 
!!!GTL: Hymnbook C
!!!ARL: Opactwo św. Wojciecha, Staniątki 
!!!voices:	1
